X:1
T:Run with our dream - piano solo
T:Run with our dream - piano solo
T:Sakuma Kirara
C:Sakuma Kirara
%%score { 1 | 2 }
L:1/8
M:4/4
K:G
V:1 treble nm="Piano" snm="Pno."
V:2 treble 
V:1
!8va(! b8 | a8 | g8 | f8 | e8 | d8 | e8 | f8!8va)! | B8 | A8 | G8 | F8 | E8 | D8 | E8 | F8 | z8 | %17
 z8 | z8 | z8 | z8 | z8 | z8 | z8 | z8 | z8 | z8 | z8 | z8 | z8 | z8 | z8 |] %32
V:2
 [DGB]8 | [DFA]8 | [B,EG]8 | [B,DF]8 | [G,CE]8 | [G,B,D]8 | [G,CE]8 | [B,DF]8 | %8
 [D,G,B,]B,B,B, B,A, G,2 | [D,F,A,]A,A,A, G,2 A,2 | [A,,E,G,]G, G,4 G,2 | %11
 [B,,D,F,]2 G, F,2 E, D,2 | [F,,C,E,]4 E,D, C,2 | D,D,E,D, z4 | z8 | z8 | z8 | z8 | z8 | z8 | z8 | %21
 z8 | z8 | z8 | z8 | z8 | z8 | z8 | z8 | z8 | z8 | z8 |] %32

